X:94
T:When in War on the Ocean. LIT.094
M:3/4
Q:1/4=150
L:1/8
W:"By the Composer of Admiral Benbow (i.e. unknown, not Dibdin)"
W:
W:"When in war on the ocean we meet the brave foe
W:Tho' with ardour for conquest our bosoms may glow
W:Let us see on their vessels Old England's flag wave
W:They shall find British sailors but conquer to save.
W:
W:See their tri-coloured ensigns we view from afar
W:With three cheers they are welcomed by each British tar;
W:Whilst the genius of Britain still bids us advance
W:And our guns hurl in thunder defiance to France.
W:
W:But mark our last broadside - she sinks - down she goes!
W:Quickly man all your boats boys, they no longer are foes
W:To snatch a brave fellow from a watery grave
W:Is worthy of Britons who conquer to save"
B:Wm. Litten MS, 1802
Z:Village Music Project 2017 Anne Wride
W:
W:- -from Songs Naval and National, of the late Charles Dibdin, with a memoir & etc.
K:G
DD | G2 Bc d2 | d2 cB AG | AB cB AG | G4 DD |
G2Bc d2 | d2 cB AG | AB cB AG | G4 FG |
A2A2 AG | A2D2D2 | G2 GA BG | d4 DD |
G2 Bc d2 | d2 cB AG | ABcB AG | G4 DD |
G2 Bc d2 | d2 cB AG | AB cB AG | G4 |]

